icons/1_Primary/Mutasibank.svg

<svg width="1024" height="1024" fill="none" xmlns="http://www.w3.org/2000/svg"><g clip-path="url(#a)"><path d="M512 1024c282.77 0 512-229.23 512-512S794.77 0 512 0 0 229.23 0 512s229.23 512 512 512Z" fill="#96DFD3"/><path d="M768 673.82 669.56 617a188.53 188.53 0 0 0-5.27-217.54h27.86a49.255 49.255 0 0 0 0-98.51H468.64v-73.56L256 350.18l99.91 57.7a188.532 188.532 0 0 0 6.09 216.7h-42a49.25 49.25 0 0 0 0 98.5h235.36v73.54L768 673.82ZM370.52 511.91a142.576 142.576 0 0 1 110.385-138.894 142.581 142.581 0 0 1 160.234 76.167 142.582 142.582 0 0 1-126.351 205.3 142.578 142.578 0 0 1-89.068-29.903 141.734 141.734 0 0 1-55.2-112.67ZM524 562.11l-24.21-46.83c6.953-3.287 12.063-7.583 15.33-12.89 3.267-5.307 4.9-11.99 4.9-20.05 0-11.14-3.877-19.76-11.63-25.86-7.753-6.1-18.507-9.15-32.26-9.15h-45.61v116h28v-41h15.13l20.47 41H524v-1.22Zm-35.88-65.52c-2.667 2.793-6.667 4.19-12 4.19h-17.64v-31.94h17.68c5.253 0 9.237 1.423 11.95 4.27 2.713 2.847 4.067 6.773 4.06 11.78 0 5-1.34 8.897-4.02 11.69l-.03.01Zm74.59 59.63a24.846 24.846 0 0 0 19.51 8.68c10.247 0 18.383-4 24.41-12 6.027-8 9.027-18.687 9-32.06v-1.27c0-13.7-2.947-24.467-8.84-32.3-5.893-7.833-14.15-11.75-24.77-11.75a24.83 24.83 0 0 0-20.31 9.56l-.8-8H535.9v119.35h26.84l-.03-40.21Zm0-53.13c2.12-4.567 6.367-6.85 12.74-6.85 8.92 0 13.38 7.647 13.38 22.94V522c-.267 14.76-4.673 22.14-13.22 22.14-6.267 0-10.567-2.39-12.9-7.17v-33.88Z" fill="#fff"/></g><defs><clipPath id="a"><path fill="#fff" d="M0 0h1024v1024H0z"/></clipPath></defs></svg>

<svg width="1024" height="1024" viewBox="0 0 1024 1024" fill="none" xmlns="http://www.w3.org/2000/svg">
<g clip-path="url(#clip0_2_2844)">
<path d="M512 1024C794.77 1024 1024 794.77 1024 512C1024 229.23 794.77 0 512 0C229.23 0 0 229.23 0 512C0 794.77 229.23 1024 512 1024Z" fill="#96DFD3"/>
<path d="M768 673.82L669.56 617C691.271 584.641 702.422 546.349 701.478 507.393C700.535 468.436 687.543 430.73 664.29 399.46H692.15C705.213 399.46 717.741 394.271 726.979 385.033C736.216 375.796 741.405 363.268 741.405 350.205C741.405 337.142 736.216 324.613 726.979 315.376C717.741 306.139 705.213 300.95 692.15 300.95H468.64V227.39L256 350.18L355.91 407.88C334.505 440.238 323.603 478.411 324.693 517.193C325.783 555.974 338.811 593.475 362 624.58H320C306.938 624.58 294.411 629.769 285.175 639.005C275.939 648.241 270.75 660.768 270.75 673.83C270.75 686.892 275.939 699.419 285.175 708.655C294.411 717.891 306.938 723.08 320 723.08H555.36V796.62L768 673.82ZM370.52 511.91C370.521 479.692 381.433 448.425 401.478 423.202C421.523 397.98 449.52 380.29 480.905 373.016C512.291 365.741 545.215 369.31 574.312 383.141C603.409 396.973 626.965 420.252 641.139 449.183C655.314 478.115 659.272 510.995 652.368 542.464C645.465 573.933 628.107 602.137 603.124 622.479C578.14 642.821 547.004 654.102 514.788 654.483C482.573 654.865 451.178 644.324 425.72 624.58C408.489 611.296 394.547 594.224 384.975 574.685C375.402 555.147 370.456 533.667 370.52 511.91ZM524 562.11L499.79 515.28C506.743 511.993 511.853 507.697 515.12 502.39C518.387 497.083 520.02 490.4 520.02 482.34C520.02 471.2 516.143 462.58 508.39 456.48C500.637 450.38 489.883 447.33 476.13 447.33H430.52V563.33H458.52V522.33H473.65L494.12 563.33H524V562.11ZM488.12 496.59C485.453 499.383 481.453 500.78 476.12 500.78H458.48V468.84H476.16C481.413 468.84 485.397 470.263 488.11 473.11C490.823 475.957 492.177 479.883 492.17 484.89C492.17 489.89 490.83 493.787 488.15 496.58L488.12 496.59ZM562.71 556.22C565.112 559.026 568.11 561.261 571.485 562.762C574.86 564.264 578.527 564.994 582.22 564.9C592.467 564.9 600.603 560.9 606.63 552.9C612.657 544.9 615.657 534.213 615.63 520.84V519.57C615.63 505.87 612.683 495.103 606.79 487.27C600.897 479.437 592.64 475.52 582.02 475.52C578.122 475.407 574.252 476.214 570.724 477.875C567.195 479.536 564.107 482.004 561.71 485.08L560.91 477.08H535.9V596.43H562.74L562.71 556.22ZM562.71 503.09C564.83 498.523 569.077 496.24 575.45 496.24C584.37 496.24 588.83 503.887 588.83 519.18V522C588.563 536.76 584.157 544.14 575.61 544.14C569.343 544.14 565.043 541.75 562.71 536.97V503.09Z" fill="white"/>
</g>
<defs>
<clipPath id="clip0_2_2844">
<rect width="1024" height="1024" fill="white"/>
</clipPath>
</defs>
</svg>
